images/2754.svg

<?xml version="1.0" encoding="UTF-8"?>
<svg xmlns="http://www.w3.org/2000/svg" xmlns:xlink="http://www.w3.org/1999/xlink" width="300pt" height="300pt" viewBox="0 0 300 300" version="1.1">
<defs>
<g>
<symbol overflow="visible" id="glyph0-0">
<path style="stroke:none;" d="M 0.453125 1.59375 L 0.453125 -6.34375 L 4.953125 -6.34375 L 4.953125 1.59375 Z M 0.953125 1.09375 L 4.453125 1.09375 L 4.453125 -5.84375 L 0.953125 -5.84375 Z M 0.953125 1.09375 "/>
</symbol>
<symbol overflow="visible" id="glyph0-1">
<path style="stroke:none;" d="M 0.890625 -6.5625 L 2.078125 -6.5625 L 4.984375 -1.078125 L 4.984375 -6.5625 L 5.84375 -6.5625 L 5.84375 0 L 4.65625 0 L 1.75 -5.484375 L 1.75 0 L 0.890625 0 Z M 0.890625 -6.5625 "/>
</symbol>
<symbol overflow="visible" id="glyph0-2">
<path style="stroke:none;" d="M 3.546875 -5.953125 C 2.898438 -5.953125 2.382812 -5.710938 2 -5.234375 C 1.625 -4.753906 1.4375 -4.101562 1.4375 -3.28125 C 1.4375 -2.445312 1.625 -1.789062 2 -1.3125 C 2.382812 -0.832031 2.898438 -0.59375 3.546875 -0.59375 C 4.191406 -0.59375 4.703125 -0.832031 5.078125 -1.3125 C 5.453125 -1.789062 5.640625 -2.445312 5.640625 -3.28125 C 5.640625 -4.101562 5.453125 -4.753906 5.078125 -5.234375 C 4.703125 -5.710938 4.191406 -5.953125 3.546875 -5.953125 Z M 3.546875 -6.6875 C 4.460938 -6.6875 5.195312 -6.375 5.75 -5.75 C 6.300781 -5.132812 6.578125 -4.3125 6.578125 -3.28125 C 6.578125 -2.238281 6.300781 -1.410156 5.75 -0.796875 C 5.195312 -0.179688 4.460938 0.125 3.546875 0.125 C 2.617188 0.125 1.878906 -0.179688 1.328125 -0.796875 C 0.773438 -1.410156 0.5 -2.238281 0.5 -3.28125 C 0.5 -4.3125 0.773438 -5.132812 1.328125 -5.75 C 1.878906 -6.375 2.617188 -6.6875 3.546875 -6.6875 Z M 3.546875 -6.6875 "/>
</symbol>
<symbol overflow="visible" id="glyph0-3">
<path style="stroke:none;" d="M 0.890625 -6.5625 L 1.765625 -6.5625 L 1.765625 -3.875 L 5 -3.875 L 5 -6.5625 L 5.890625 -6.5625 L 5.890625 0 L 5 0 L 5 -3.125 L 1.765625 -3.125 L 1.765625 0 L 0.890625 0 Z M 0.890625 -6.5625 "/>
</symbol>
</g>
</defs>
<g id="surface55817">
<rect x="0" y="0" width="300" height="300" style="fill:rgb(100%,100%,100%);fill-opacity:1;stroke:none;"/>
<path style="fill:none;stroke-width:1.2;stroke-linecap:butt;stroke-linejoin:miter;stroke:rgb(0%,0%,0%);stroke-opacity:1;stroke-miterlimit:10;" d="M 109.632812 115.78125 L 114.898438 135.886719 "/>
<path style="fill:none;stroke-width:1.2;stroke-linecap:butt;stroke-linejoin:miter;stroke:rgb(0%,0%,0%);stroke-opacity:1;stroke-miterlimit:10;" d="M 89.585938 110.292969 L 109.632812 115.78125 "/>
<path style="fill:none;stroke-width:1.2;stroke-linecap:butt;stroke-linejoin:miter;stroke:rgb(0%,0%,0%);stroke-opacity:1;stroke-miterlimit:10;" d="M 114.898438 135.886719 L 100.121094 150.5 "/>
<path style="fill:none;stroke-width:1.2;stroke-linecap:butt;stroke-linejoin:miter;stroke:rgb(0%,0%,0%);stroke-opacity:1;stroke-miterlimit:10;" d="M 100.121094 150.5 L 80.074219 145.011719 "/>
<path style="fill:none;stroke-width:1.2;stroke-linecap:butt;stroke-linejoin:miter;stroke:rgb(0%,0%,0%);stroke-opacity:1;stroke-miterlimit:10;" d="M 80.074219 145.011719 L 74.808594 124.90625 "/>
<path style="fill:none;stroke-width:1.2;stroke-linecap:butt;stroke-linejoin:miter;stroke:rgb(0%,0%,0%);stroke-opacity:1;stroke-miterlimit:10;" d="M 80.074219 145.011719 L 72.6875 152.316406 "/>
<path style="fill:none;stroke-width:1.2;stroke-linecap:butt;stroke-linejoin:miter;stroke:rgb(0%,0%,100%);stroke-opacity:1;stroke-miterlimit:10;" d="M 72.6875 152.316406 L 65.296875 159.625 "/>
<path style="fill:none;stroke-width:1.2;stroke-linecap:butt;stroke-linejoin:miter;stroke:rgb(0%,0%,0%);stroke-opacity:1;stroke-miterlimit:10;" d="M 74.808594 124.90625 L 89.585938 110.292969 "/>
<path style="fill:none;stroke-width:1.2;stroke-linecap:butt;stroke-linejoin:miter;stroke:rgb(0%,0%,100%);stroke-opacity:1;stroke-miterlimit:10;" d="M 65.296875 159.625 L 66.867188 169.898438 "/>
<path style="fill:none;stroke-width:1.2;stroke-linecap:butt;stroke-linejoin:miter;stroke:rgb(0%,0%,0%);stroke-opacity:1;stroke-miterlimit:10;" d="M 66.867188 169.898438 L 68.433594 180.167969 "/>
<path style="fill:none;stroke-width:1.2;stroke-linecap:butt;stroke-linejoin:miter;stroke:rgb(0%,0%,100%);stroke-opacity:1;stroke-miterlimit:10;" d="M 44.789062 156.257812 L 65.296875 159.625 "/>
<path style=" stroke:none;fill-rule:nonzero;fill:rgb(100%,100%,100%);fill-opacity:1;" d="M 62.296875 154.125 L 69.296875 154.125 L 69.296875 165.125 L 62.296875 165.125 Z M 62.296875 154.125 "/>
<g style="fill:rgb(0%,0%,100%);fill-opacity:1;">
  <use xlink:href="#glyph0-1" x="62.296875" y="162.788086"/>
</g>
<path style="fill:none;stroke-width:1.2;stroke-linecap:butt;stroke-linejoin:miter;stroke:rgb(0%,0%,0%);stroke-opacity:1;stroke-miterlimit:10;" d="M 68.433594 180.167969 L 59.148438 184.835938 "/>
<path style="fill:none;stroke-width:1.2;stroke-linecap:butt;stroke-linejoin:miter;stroke:rgb(0%,0%,100%);stroke-opacity:1;stroke-miterlimit:10;" d="M 59.148438 184.835938 L 49.863281 189.5 "/>
<path style="fill:none;stroke-width:1.2;stroke-linecap:butt;stroke-linejoin:miter;stroke:rgb(0%,0%,0%);stroke-opacity:1;stroke-miterlimit:10;" d="M 64.382812 176.734375 L 56.953125 180.464844 "/>
<path style="fill:none;stroke-width:1.2;stroke-linecap:butt;stroke-linejoin:miter;stroke:rgb(0%,0%,100%);stroke-opacity:1;stroke-miterlimit:10;" d="M 56.953125 180.464844 L 49.523438 184.199219 "/>
<path style="fill:none;stroke-width:1.2;stroke-linecap:butt;stroke-linejoin:miter;stroke:rgb(0%,0%,0%);stroke-opacity:1;stroke-miterlimit:10;" d="M 68.433594 180.167969 L 86.898438 189.707031 "/>
<path style="fill:none;stroke-width:1.2;stroke-linecap:butt;stroke-linejoin:miter;stroke:rgb(0%,0%,100%);stroke-opacity:1;stroke-miterlimit:10;" d="M 49.863281 189.5 L 35.25 174.722656 "/>
<path style=" stroke:none;fill-rule:nonzero;fill:rgb(100%,100%,100%);fill-opacity:1;" d="M 46.863281 184 L 53.863281 184 L 53.863281 195 L 46.863281 195 Z M 46.863281 184 "/>
<g style="fill:rgb(0%,0%,100%);fill-opacity:1;">
  <use xlink:href="#glyph0-1" x="46.863281" y="192.663086"/>
</g>
<path style="fill:none;stroke-width:1.2;stroke-linecap:butt;stroke-linejoin:miter;stroke:rgb(0%,0%,100%);stroke-opacity:1;stroke-miterlimit:10;" d="M 35.25 174.722656 L 44.789062 156.257812 "/>
<path style="fill:none;stroke-width:1.2;stroke-linecap:butt;stroke-linejoin:miter;stroke:rgb(0%,0%,100%);stroke-opacity:1;stroke-miterlimit:10;" d="M 40.546875 175.121094 L 48.179688 160.347656 "/>
<path style=" stroke:none;fill-rule:nonzero;fill:rgb(100%,100%,100%);fill-opacity:1;" d="M 32.25 169.222656 L 39.25 169.222656 L 39.25 180.222656 L 32.25 180.222656 Z M 32.25 169.222656 "/>
<g style="fill:rgb(0%,0%,100%);fill-opacity:1;">
  <use xlink:href="#glyph0-1" x="32.25" y="177.885742"/>
</g>
<path style=" stroke:none;fill-rule:nonzero;fill:rgb(100%,100%,100%);fill-opacity:1;" d="M 41.789062 150.757812 L 48.789062 150.757812 L 48.789062 161.757812 L 41.789062 161.757812 Z M 41.789062 150.757812 "/>
<g style="fill:rgb(0%,0%,100%);fill-opacity:1;">
  <use xlink:href="#glyph0-1" x="41.789062" y="159.420898"/>
</g>
<path style="fill:none;stroke-width:1.2;stroke-linecap:butt;stroke-linejoin:miter;stroke:rgb(0%,0%,0%);stroke-opacity:1;stroke-miterlimit:10;" d="M 86.898438 189.707031 L 104.394531 178.488281 "/>
<path style="fill:none;stroke-width:1.2;stroke-linecap:butt;stroke-linejoin:miter;stroke:rgb(0%,0%,0%);stroke-opacity:1;stroke-miterlimit:10;" d="M 104.394531 178.488281 L 122.859375 188.023438 "/>
<path style="fill:none;stroke-width:1.2;stroke-linecap:butt;stroke-linejoin:miter;stroke:rgb(0%,0%,0%);stroke-opacity:1;stroke-miterlimit:10;" d="M 122.859375 188.023438 L 140.351562 176.804688 "/>
<path style="fill:none;stroke-width:1.2;stroke-linecap:butt;stroke-linejoin:miter;stroke:rgb(0%,0%,0%);stroke-opacity:1;stroke-miterlimit:10;" d="M 140.351562 176.804688 L 149.585938 181.574219 "/>
<path style="fill:none;stroke-width:1.2;stroke-linecap:butt;stroke-linejoin:miter;stroke:rgb(100%,0%,0%);stroke-opacity:1;stroke-miterlimit:10;" d="M 149.585938 181.574219 L 158.816406 186.34375 "/>
<path style="fill:none;stroke-width:1.2;stroke-linecap:butt;stroke-linejoin:miter;stroke:rgb(100%,0%,0%);stroke-opacity:1;stroke-miterlimit:10;" d="M 158.816406 186.34375 L 167.5625 180.730469 "/>
<path style="fill:none;stroke-width:1.2;stroke-linecap:butt;stroke-linejoin:miter;stroke:rgb(0%,0%,0%);stroke-opacity:1;stroke-miterlimit:10;" d="M 167.5625 180.730469 L 176.3125 175.121094 "/>
<path style=" stroke:none;fill-rule:nonzero;fill:rgb(100%,100%,100%);fill-opacity:1;" d="M 154.816406 180.84375 L 162.816406 180.84375 L 162.816406 191.84375 L 154.816406 191.84375 Z M 154.816406 180.84375 "/>
<g style="fill:rgb(100%,0%,0%);fill-opacity:1;">
  <use xlink:href="#glyph0-2" x="154.816406" y="189.506836"/>
</g>
<path style="fill:none;stroke-width:1.2;stroke-linecap:butt;stroke-linejoin:miter;stroke:rgb(0%,0%,0%);stroke-opacity:1;stroke-miterlimit:10;" d="M 176.3125 175.121094 L 194.777344 184.660156 "/>
<path style="fill:none;stroke-width:1.2;stroke-linecap:butt;stroke-linejoin:miter;stroke:rgb(0%,0%,0%);stroke-opacity:1;stroke-miterlimit:10;" d="M 180.402344 171.730469 L 195.175781 179.359375 "/>
<path style="fill:none;stroke-width:1.2;stroke-linecap:butt;stroke-linejoin:miter;stroke:rgb(0%,0%,0%);stroke-opacity:1;stroke-miterlimit:10;" d="M 175.339844 154.359375 L 176.3125 175.121094 "/>
<path style="fill:none;stroke-width:1.2;stroke-linecap:butt;stroke-linejoin:miter;stroke:rgb(0%,0%,0%);stroke-opacity:1;stroke-miterlimit:10;" d="M 194.777344 184.660156 L 212.269531 173.4375 "/>
<path style="fill:none;stroke-width:1.2;stroke-linecap:butt;stroke-linejoin:miter;stroke:rgb(0%,0%,0%);stroke-opacity:1;stroke-miterlimit:10;" d="M 212.269531 173.4375 L 211.296875 152.675781 "/>
<path style="fill:none;stroke-width:1.2;stroke-linecap:butt;stroke-linejoin:miter;stroke:rgb(0%,0%,0%);stroke-opacity:1;stroke-miterlimit:10;" d="M 217.058594 171.132812 L 216.28125 154.523438 "/>
<path style="fill:none;stroke-width:1.2;stroke-linecap:butt;stroke-linejoin:miter;stroke:rgb(0%,0%,0%);stroke-opacity:1;stroke-miterlimit:10;" d="M 230.734375 182.976562 L 212.269531 173.4375 "/>
<path style="fill:none;stroke-width:1.2;stroke-linecap:butt;stroke-linejoin:miter;stroke:rgb(0%,0%,0%);stroke-opacity:1;stroke-miterlimit:10;" d="M 211.296875 152.675781 L 192.832031 143.136719 "/>
<path style="fill:none;stroke-width:1.2;stroke-linecap:butt;stroke-linejoin:miter;stroke:rgb(0%,0%,0%);stroke-opacity:1;stroke-miterlimit:10;" d="M 211.296875 152.675781 L 220.042969 147.066406 "/>
<path style="fill:none;stroke-width:1.2;stroke-linecap:butt;stroke-linejoin:miter;stroke:rgb(0%,0%,100%);stroke-opacity:1;stroke-miterlimit:10;" d="M 220.042969 147.066406 L 228.792969 141.453125 "/>
<path style="fill:none;stroke-width:1.2;stroke-linecap:butt;stroke-linejoin:miter;stroke:rgb(0%,0%,0%);stroke-opacity:1;stroke-miterlimit:10;" d="M 192.832031 143.136719 L 175.339844 154.359375 "/>
<path style="fill:none;stroke-width:1.2;stroke-linecap:butt;stroke-linejoin:miter;stroke:rgb(0%,0%,0%);stroke-opacity:1;stroke-miterlimit:10;" d="M 193.722656 148.375 L 179.730469 157.351562 "/>
<path style="fill:none;stroke-width:1.2;stroke-linecap:butt;stroke-linejoin:miter;stroke:rgb(0%,0%,100%);stroke-opacity:1;stroke-miterlimit:10;" d="M 228.792969 141.453125 L 238.023438 146.222656 "/>
<path style="fill:none;stroke-width:1.2;stroke-linecap:butt;stroke-linejoin:miter;stroke:rgb(0%,0%,0%);stroke-opacity:1;stroke-miterlimit:10;" d="M 238.023438 146.222656 L 247.257812 150.992188 "/>
<path style=" stroke:none;fill-rule:nonzero;fill:rgb(100%,100%,100%);fill-opacity:1;" d="M 221.792969 135.953125 L 235.792969 135.953125 L 235.792969 146.953125 L 221.792969 146.953125 Z M 221.792969 135.953125 "/>
<g style="fill:rgb(0%,0%,100%);fill-opacity:1;">
  <use xlink:href="#glyph0-1" x="221.792969" y="144.616211"/>
  <use xlink:href="#glyph0-3" x="228.770508" y="144.616211"/>
</g>
<path style="fill:none;stroke-width:1.2;stroke-linecap:butt;stroke-linejoin:miter;stroke:rgb(0%,0%,0%);stroke-opacity:1;stroke-miterlimit:10;" d="M 248.578125 153.050781 L 257.324219 147.441406 "/>
<path style="fill:none;stroke-width:1.2;stroke-linecap:butt;stroke-linejoin:miter;stroke:rgb(100%,0%,0%);stroke-opacity:1;stroke-miterlimit:10;" d="M 257.324219 147.441406 L 266.070312 141.828125 "/>
<path style="fill:none;stroke-width:1.2;stroke-linecap:butt;stroke-linejoin:miter;stroke:rgb(0%,0%,0%);stroke-opacity:1;stroke-miterlimit:10;" d="M 245.9375 148.933594 L 254.683594 143.324219 "/>
<path style="fill:none;stroke-width:1.2;stroke-linecap:butt;stroke-linejoin:miter;stroke:rgb(100%,0%,0%);stroke-opacity:1;stroke-miterlimit:10;" d="M 254.683594 143.324219 L 263.429688 137.710938 "/>
<path style="fill:none;stroke-width:1.2;stroke-linecap:butt;stroke-linejoin:miter;stroke:rgb(0%,0%,0%);stroke-opacity:1;stroke-miterlimit:10;" d="M 247.257812 150.992188 L 248.226562 171.753906 "/>
<path style=" stroke:none;fill-rule:nonzero;fill:rgb(100%,100%,100%);fill-opacity:1;" d="M 260.75 134.269531 L 268.75 134.269531 L 268.75 145.269531 L 260.75 145.269531 Z M 260.75 134.269531 "/>
<g style="fill:rgb(100%,0%,0%);fill-opacity:1;">
  <use xlink:href="#glyph0-2" x="260.75" y="142.932617"/>
</g>
<path style="fill:none;stroke-width:1.2;stroke-linecap:butt;stroke-linejoin:miter;stroke:rgb(0%,0%,0%);stroke-opacity:1;stroke-miterlimit:10;" d="M 248.226562 171.753906 L 230.734375 182.976562 "/>
</g>
</svg>

<svg xmlns="http://www.w3.org/2000/svg" xmlns:xlink="http://www.w3.org/1999/xlink" width="300pt" height="300pt" viewBox="0 0 300 300"><defs><symbol overflow="visible"><path d="M.453 1.594v-7.938h4.5v7.938zm.5-.5h3.5v-6.938h-3.5zm0 0"/></symbol><symbol overflow="visible" id="a"><path d="M.89-6.563H2.08l2.906 5.485v-5.484h.86V0H4.656L1.75-5.484V0H.89zm0 0"/></symbol><symbol overflow="visible" id="b"><path d="M3.547-5.953c-.65 0-1.164.242-1.547.72-.375.48-.563 1.13-.563 1.952 0 .835.188 1.49.563 1.967.383.48.898.72 1.547.72.644 0 1.156-.24 1.53-.72.376-.476.564-1.132.564-1.968 0-.822-.187-1.474-.562-1.954-.375-.477-.887-.72-1.53-.72zm0-.734c.914 0 1.648.312 2.203.937.55.617.828 1.438.828 2.47 0 1.042-.277 1.87-.828 2.483-.555.617-1.29.922-2.203.922-.93 0-1.668-.305-2.22-.922C.774-1.41.5-2.237.5-3.28c0-1.033.273-1.853.828-2.47.55-.625 1.29-.938 2.22-.938zm0 0"/></symbol><symbol overflow="visible" id="c"><path d="M.89-6.563h.876v2.688H5v-2.688h.89V0H5v-3.125H1.766V0H.89zm0 0"/></symbol></defs><g><path fill="#fff" d="M0 0h300v300H0z"/><path d="M109.633 115.78l5.265 20.107M89.586 110.293l20.047 5.488M114.898 135.887L100.12 150.5M100.12 150.5l-20.046-5.488M80.074 145.012l-5.265-20.106M80.074 145.012l-7.386 7.304" stroke-width="1.2" stroke="#000" stroke-miterlimit="10" fill="none"/><path d="M72.688 152.316l-7.39 7.31" stroke-width="1.2" stroke="#00f" stroke-miterlimit="10" fill="none"/><path d="M74.81 124.906l14.776-14.613" stroke-width="1.2" stroke="#000" stroke-miterlimit="10" fill="none"/><path d="M65.297 159.625l1.57 10.273" stroke-width="1.2" stroke="#00f" stroke-miterlimit="10" fill="none"/><path d="M66.867 169.898l1.567 10.27" stroke-width="1.2" stroke="#000" stroke-miterlimit="10" fill="none"/><path d="M44.79 156.258l20.507 3.367" stroke-width="1.2" stroke="#00f" stroke-miterlimit="10" fill="none"/><path d="M62.297 154.125h7v11h-7zm0 0" fill="#fff"/><use xlink:href="#a" x="62.297" y="162.788" fill="#00f"/><path d="M68.434 180.168l-9.286 4.668" stroke-width="1.2" stroke="#000" stroke-miterlimit="10" fill="none"/><path d="M59.148 184.836l-9.285 4.664" stroke-width="1.2" stroke="#00f" stroke-miterlimit="10" fill="none"/><path d="M64.383 176.734l-7.43 3.73" stroke-width="1.2" stroke="#000" stroke-miterlimit="10" fill="none"/><path d="M56.953 180.465l-7.43 3.734" stroke-width="1.2" stroke="#00f" stroke-miterlimit="10" fill="none"/><path d="M68.434 180.168l18.464 9.54" stroke-width="1.2" stroke="#000" stroke-miterlimit="10" fill="none"/><path d="M49.863 189.5L35.25 174.723" stroke-width="1.2" stroke="#00f" stroke-miterlimit="10" fill="none"/><path d="M46.863 184h7v11h-7zm0 0" fill="#fff"/><use xlink:href="#a" x="46.863" y="192.663" fill="#00f"/><path d="M35.25 174.723l9.54-18.465M40.547 175.12l7.633-14.772" stroke-width="1.2" stroke="#00f" stroke-miterlimit="10" fill="none"/><path d="M32.25 169.223h7v11h-7zm0 0" fill="#fff"/><use xlink:href="#a" x="32.25" y="177.886" fill="#00f"/><path d="M41.79 150.758h7v11h-7zm0 0" fill="#fff"/><use xlink:href="#a" x="41.789" y="159.421" fill="#00f"/><path d="M86.898 189.707l17.497-11.22M104.395 178.488l18.464 9.535M122.86 188.023l17.492-11.218M140.352 176.805l9.234 4.77" stroke-width="1.2" stroke="#000" stroke-miterlimit="10" fill="none"/><path d="M149.586 181.574l9.23 4.77M158.816 186.344l8.746-5.614" stroke-width="1.2" stroke="#f00" stroke-miterlimit="10" fill="none"/><path d="M167.563 180.73l8.75-5.61" stroke-width="1.2" stroke="#000" stroke-miterlimit="10" fill="none"/><path d="M154.816 180.844h8v11h-8zm0 0" fill="#fff"/><use xlink:href="#b" x="154.816" y="189.507" fill="#f00"/><path d="M176.313 175.12l18.464 9.54M180.402 171.73l14.774 7.63M175.34 154.36l.972 20.76M194.777 184.66l17.493-11.222M212.27 173.438l-.973-20.762M217.06 171.133l-.78-16.61M230.734 182.977l-18.464-9.54M211.297 152.676l-18.465-9.54M211.297 152.676l8.746-5.61" stroke-width="1.2" stroke="#000" stroke-miterlimit="10" fill="none"/><path d="M220.043 147.066l8.75-5.613" stroke-width="1.2" stroke="#00f" stroke-miterlimit="10" fill="none"/><path d="M192.832 143.137L175.34 154.36M193.723 148.375l-13.993 8.977" stroke-width="1.2" stroke="#000" stroke-miterlimit="10" fill="none"/><path d="M228.793 141.453l9.23 4.77" stroke-width="1.2" stroke="#00f" stroke-miterlimit="10" fill="none"/><path d="M238.023 146.223l9.235 4.77" stroke-width="1.2" stroke="#000" stroke-miterlimit="10" fill="none"/><path d="M221.793 135.953h14v11h-14zm0 0" fill="#fff"/><g fill="#00f"><use xlink:href="#a" x="221.793" y="144.616"/><use xlink:href="#c" x="228.771" y="144.616"/></g><path d="M248.578 153.05l8.746-5.61" stroke-width="1.2" stroke="#000" stroke-miterlimit="10" fill="none"/><path d="M257.324 147.44l8.746-5.612" stroke-width="1.2" stroke="#f00" stroke-miterlimit="10" fill="none"/><path d="M245.938 148.934l8.746-5.61" stroke-width="1.2" stroke="#000" stroke-miterlimit="10" fill="none"/><path d="M254.684 143.324l8.746-5.613" stroke-width="1.2" stroke="#f00" stroke-miterlimit="10" fill="none"/><path d="M247.258 150.992l.97 20.762" stroke-width="1.2" stroke="#000" stroke-miterlimit="10" fill="none"/><path d="M260.75 134.27h8v11h-8zm0 0" fill="#fff"/><use xlink:href="#b" x="260.75" y="142.933" fill="#f00"/><path d="M248.227 171.754l-17.493 11.223" stroke-width="1.2" stroke="#000" stroke-miterlimit="10" fill="none"/></g></svg>
